svg/eight_track.svg

<svg xmlns="http://www.w3.org/2000/svg" viewBox="0 0 24 24"><path d="M7 2 5 5v11l1 4c.27 1.07.9 2 2 2h8a2 2 0 0 0 2-2l1-4V5l-2-3h-2v1h-2V2zm0 4h10v10H7z"/></svg>

<?xml version="1.0" encoding="UTF-8"?><!DOCTYPE svg PUBLIC "-//W3C//DTD SVG 1.1//EN" "http://www.w3.org/Graphics/SVG/1.1/DTD/svg11.dtd"><svg xmlns="http://www.w3.org/2000/svg" xmlns:xlink="http://www.w3.org/1999/xlink" version="1.1" id="mdi-eight-track" width="24" height="24" viewBox="0 0 24 24"><path d="M7,2L5,5V16L6,20C6.27,21.07 6.9,22 8,22H16A2,2 0 0,0 18,20L19,16V5L17,2H15V3H13V2H7M7,6H17V16H7V6Z" /></svg>
